X: 1
T: Ebb Tide, The
M: 4/4
L: 1/8
D: Teada, Inne Amarach
K: G
dc|B/c/B AB GABc|d2 GF G2 bg|fdcB cedB|c/B/A BG =F2 Bc|
B/c/B AB G2 A/B/c|dgfa ~g3a|f/e/d cB cedc|1 B/c/B GF G2 Bc:|2 B/c/B GF G2 ga||
bgdB gdBG|DGBd gabg|aAcA =fAcA|D=FcF dFcF|
B/c/B AB GABc|dgfa ~g3a|f/e/d cB cedc|1 B/c/B AF G2 ga:|2 B/c/B AF GAdc||
